X: 20
T: Boys Them Flies are Buzzin'
C:Donna Vaughan
B: canberra pickers and fiddlers
B: tunes
M:4/4
L:1/8
Q: 1/4=100
K:Dmixolydian
V:1 
[|: defd a3 (a | a)bag f d3 | defd a2 g2 | fe d2 c3 (c | 
c)`d`c`B A2 G2 | FF G2  A4:|AcAG FE D2 |C C3 D3 (D | 
[|:D)A,CA, DA,CA, | D D3 F3(F | F)EFG A3 (A | A)cAG FE D2|
E F3 G4 | BdBA FE D2 | F G3A3 (A | A)cAG FE D2|C C3 D4 :|
% abcbook-tune_id 63ae8f1c6160d4a519f05e5f
% abcbook-tune_composer_id 
% abcbook-link-0 https://www.youtube.com/watch?v=8RkN3nSkmz4
% abcbook-boost 18
% abcbook-difficulty 0
% abcbook-tags canberra pickers and fiddlers,old time tunes,© free
% abcbook-tablature 
% abcbook-transpose 
% abcbook-tuning ADAE
% abcbook-lastupdated 1739274175310
% abcbook-src-url https://tunebook.net/scrape/tunes.abc
% abcbook-soundfonts 
% abcbook-repeats 1


